X:1
T:Title
%%score { ( 1 2 ) | ( 3 4 ) }
L:1/8
Q:1/4=81
M:6/8
K:F
V:1 treble nm="Grand Piano"
V:2 treble 
V:3 bass 
V:4 bass 
V:1
 [CA]FG A-[FA]A | [Dc]2 B B2 A | [CA]GF EFB | .A3 z3 | z3 .A3 | [Dc]2 B B2 A | GA=B cGe | %7
w: Powell~G.~Fithian * * * * *|||||||
 e2 d [Ec]3 | [Be]2 [Be] [Af]2 [Ac] | [GB][^FA][GB] [_Ad]2 [=Ac] | [Be]2 [Be] [Af]2 [Ac] | %11
w: ||||
 [Ac]BA G3 | z3 .A3 | [Dc]2 B B2 A | FE[A,CF] [DFB]2 [CFA] | [CFA]F[B,EG] [A,CF]3 | %16
w: |||||
 E,D[K:treble]E F2 C | EFG G2 F | ABc d2 c | Bcd e2- [Ge] | f2 d c2 A | d2 c [_Ec]2 [DB] | %22
w: ||||||
 de[Fd] [Fc]2 [FA] | .[Ec]2 [B,EG] [A,CF]3 |] %24
w: ||
V:2
 z3 .C3 | x6 | x6 | z D[B,EG] [A,F]3 | [CA]FG CFA | x6 | x6 | x6 | x6 | x6 | x6 | x6 | [CA]FG CFA | %13
 x6 | x6 | x6 | .C3[K:treble] z3 | x6 | x6 | z3 .E3 | x6 | x6 | .F3 z3 | x6 |] %24
V:3
 z A,B, z2 _E | z2 D ^C2 =C | z B,A, G,A,D | C=B,C, F,3 | z A,B, z2 _E | z2[K:treble] D ^C2 =C | %6
 E[_EF][DF] [G,C=E]2 [G,CG] | [G,=B,G]2 [G,B,F][K:bass] [C,G,C]3 | [C,C]2 [C,C] [C,C]2 [C,C] | %9
 [C,C]2 [C,C] [F,=B,]2 [F,C] | [G,C]2 [C,C] [F,C]2 [F,C] | z G[=B,DF] [CE]3 | z A,B, z2 _E | %13
 z2 D ^C2 =C | .[C,C]3 z3 | z A,C, F,3 | z F,[C,G,C] [C,A,C]2 [C,A,] | %17
 [C,C]-[C,A,C][C,B,C] [F,B,C]2 [F,A,C] | [CF]-[G,CF][A,CF] [B,F]2 [_A,CF] | .D3[K:bass] .C3 | %20
 [A,CF]2 [B,F][K:bass] [F,A,F]2 [F,CF] | [F,G,_E]2 [F,A,E] [B,,B,]2 [B,,B,] | %22
 [=B,,_A,]2 [B,,A,] [C,=A,]2 [C,C] | z[K:treble] B[K:bass]C, F,3 |] %24
V:4
 [F,,F,]3 [F,,F,]3 | [F,,F,]6 | C,6 | .C,3 z3 | [F,,F,]3 [F,,F,]3 | [F,,F,]6[K:treble] | G,3 z3 | %7
 x3[K:bass] x3 | x6 | x6 | x6 | .[B,D]3 z3 | [F,,F,]3 [F,,F,]3 | [F,,F,]6 | A,G,C, C,2 C, | %15
 .C,3 z3 | .C,3 z3 | .G,3 z3 | .F,3 z3 | [G,F]-[G,A,F][G,=B,F][K:bass] C,2- [C,_B,] | %20
 x3[K:bass] x3 | x6 | x6 | .[C,G,]3[K:treble][K:bass] z3 |] %24

